src/google.svg

<svg viewBox="0 0 24 24" fill="none" xmlns="http://www.w3.org/2000/svg"><path d="M24 12.2667C24 11.28 23.9183 10.56 23.7415 9.81335H12.2449V14.2666H18.9931C18.8571 15.3733 18.1224 17.04 16.4897 18.16L16.4669 18.309L20.1019 21.0687L20.3537 21.0934C22.6666 19 24 15.92 24 12.2667Z" fill="#4285F4"/><path d="M12.2449 24C15.551 24 18.3265 22.9333 20.3537 21.0934L16.4898 18.1599C15.4558 18.8666 14.068 19.3599 12.2449 19.3599C9.00682 19.3599 6.25854 17.2667 5.27886 14.3734L5.13526 14.3853L1.35552 17.252L1.30609 17.3866C3.31968 21.3066 7.45574 24 12.2449 24Z" fill="#34A853"/><path d="M5.27886 14.3734C5.02036 13.6267 4.87076 12.8266 4.87076 12C4.87076 11.1733 5.02036 10.3733 5.26526 9.62668L5.25841 9.46766L1.43131 6.55493L1.30609 6.6133C0.476196 8.23999 0 10.0667 0 12C0 13.9333 0.476196 15.76 1.30609 17.3866L5.27886 14.3734Z" fill="#FBBC05"/><path d="M12.2449 4.63997C14.5442 4.63997 16.0952 5.6133 16.9796 6.42669L20.4353 3.12C18.3129 1.18667 15.551 0 12.2449 0C7.45574 0 3.31968 2.69331 1.30609 6.61328L5.26526 9.62666C6.25854 6.73333 9.00682 4.63997 12.2449 4.63997Z" fill="#EB4335"/></svg>

<svg viewBox="0 0 24 24" fill="none" xmlns="http://www.w3.org/2000/svg"><path d="M24 12.267c0-.987-.082-1.707-.259-2.454H12.245v4.454h6.748c-.136 1.106-.87 2.773-2.503 3.893l-.023.149 3.635 2.76.252.024C22.667 19 24 15.92 24 12.267Z" fill="#4285F4"/><path d="M12.245 24c3.306 0 6.082-1.067 8.109-2.907L16.49 18.16c-1.034.707-2.422 1.2-4.245 1.2a7.358 7.358 0 0 1-6.966-4.987l-.144.012-3.78 2.867-.049.135C3.32 21.307 7.456 24 12.245 24Z" fill="#34A853"/><path d="M5.279 14.373A7.255 7.255 0 0 1 4.87 12c0-.827.15-1.627.394-2.373l-.007-.16-3.827-2.912-.125.058A11.816 11.816 0 0 0 0 12c0 1.933.476 3.76 1.306 5.387l3.973-3.014Z" fill="#FBBC05"/><path d="M12.245 4.64c2.3 0 3.85.973 4.735 1.787l3.455-3.307C18.313 1.187 15.551 0 12.245 0 7.455 0 3.32 2.693 1.306 6.613l3.96 3.014c.993-2.894 3.74-4.987 6.979-4.987Z" fill="#EB4335"/></svg>
